X: 4
T: Tatter Jack Walsh
R: jig
M: 6/8
L: 1/8
K: Ddor
~f3 ded|cAB ~c2 A|dcA ~G3|Add efg|~f3 ded|cAB ~c2 A|dcA ~G3|1 Ad^c dag:|2 Ad^c dBA||dfa dfa|dfa agf|~g3 ged|^cde ~g3|afd fed|cAB ~c2 A|dcA ~G3|1 Ad^c dBA:|Ad^c dag||


Tune 1638	Setting 25971

